X: 7
T: Kafoozalum
M: 4/4
L: 1/8
Q: 300
K: G Major
|: B>c |\
d2 d>c B>c d2 | A>Bc>B A>B c2 |
d>ed>c B>cd>B | G>AB>G A2 :|
|: G>A |\
B>GD>G B<G B2 | c>AE>A c<A c2 |
B>GD>G B>G B2 | G>AB>G A2 :|
